static/asset/icon-line.svg

<?xml version="1.0" encoding="UTF-8" standalone="no"?>
<svg width="24px" height="24px" viewBox="0 0 24 24" version="1.1" xmlns="http://www.w3.org/2000/svg" xmlns:xlink="http://www.w3.org/1999/xlink">
    <!-- Generator: Sketch 3.8.3 (29802) - http://www.bohemiancoding.com/sketch -->
    <title>icon-line</title>
    <desc>Created with Sketch.</desc>
    <defs></defs>
    <g id="Article" stroke="none" stroke-width="1" fill="none" fill-rule="evenodd">
        <g id="Topic-–-Mobile-Portrait" transform="translate(-148.000000, -8272.000000)">
            <g id="Group-2" transform="translate(52.000000, 8272.000000)">
                <g id="icon-line" transform="translate(96.000000, 0.000000)">
                    <path d="M19.5894316,0.0213333333 L4.35897544,-6.01507219e-13 C1.96697544,-0.0030877193 0.0250807018,1.93333333 0.0214315789,4.32533333 L-4.21052632e-05,19.5569123 C-0.00298947368,21.9490526 1.93371228,23.8913684 4.32529123,23.8948772 L19.5554667,23.9163509 C21.9480281,23.9195789 23.8896421,21.9830175 23.8934316,19.5903158 L23.9147649,4.35887719 C23.9186947,1.96659649 21.981993,0.0248421053 19.5894316,0.0213333333" id="Fill-1" fill="#BFBFBF"></path>
                    <path d="M17.3070877,10.5813754 C17.5584561,10.5813754 17.7632281,10.786007 17.7632281,11.0380772 C17.7632281,11.2894456 17.5584561,11.4943579 17.3070877,11.4943579 L16.0332632,11.4943579 L16.0332632,12.3112 L17.3070877,12.3112 C17.5578947,12.3112 17.7632281,12.5159719 17.7632281,12.7674807 C17.7632281,13.0199719 17.5578947,13.2246035 17.3070877,13.2246035 L15.576,13.2246035 C15.325193,13.2246035 15.1198596,13.0199719 15.1198596,12.7674807 L15.1198596,11.0389193 L15.1198596,11.0380772 L15.1198596,11.0370947 L15.1198596,9.30769123 C15.1198596,9.05618246 15.3249123,8.85084912 15.576,8.85084912 L17.3070877,8.85084912 C17.5584561,8.85084912 17.7632281,9.05618246 17.7632281,9.30769123 C17.7632281,9.5597614 17.5584561,9.76467368 17.3070877,9.76467368 L16.0332632,9.76467368 L16.0332632,10.5813754 L17.3070877,10.5813754 L17.3070877,10.5813754 Z M14.5072281,12.7674807 C14.5072281,12.9650947 14.381614,13.1391298 14.194386,13.2010246 C14.1475088,13.2166035 14.0989474,13.2246035 14.0499649,13.2246035 C13.9073684,13.2246035 13.7712281,13.1565333 13.6850526,13.0417263 L11.912,10.6275509 L11.912,12.7674807 C11.912,13.0199719 11.7075088,13.2246035 11.4552982,13.2246035 C11.2036491,13.2246035 10.9985965,13.0199719 10.9985965,12.7674807 L10.9985965,9.30769123 C10.9985965,9.1109193 11.1244912,8.93688421 11.3111579,8.87442807 C11.3580351,8.85912982 11.4067368,8.85084912 11.4555789,8.85084912 C11.5981754,8.85084912 11.7348772,8.91905965 11.8204912,9.03400702 L13.5938246,11.4490246 L13.5938246,9.30769123 C13.5938246,9.05618246 13.7988772,8.85084912 14.0505263,8.85084912 C14.3024561,8.85084912 14.5072281,9.05618246 14.5072281,9.30769123 L14.5072281,12.7674807 L14.5072281,12.7674807 Z M10.3420351,12.7674807 C10.3420351,13.0199719 10.1372632,13.2246035 9.88575439,13.2246035 C9.63410526,13.2246035 9.42933333,13.0199719 9.42933333,12.7674807 L9.42933333,9.30769123 C9.42933333,9.05618246 9.63410526,8.85084912 9.88575439,8.85084912 C10.1372632,8.85084912 10.3420351,9.05618246 10.3420351,9.30769123 L10.3420351,12.7674807 L10.3420351,12.7674807 Z M8.55242105,13.2246035 L6.82259649,13.2246035 C6.57108772,13.2246035 6.36645614,13.0199719 6.36645614,12.7674807 L6.36645614,9.30769123 C6.36645614,9.05618246 6.57108772,8.85084912 6.82259649,8.85084912 C7.07438596,8.85084912 7.27901754,9.05618246 7.27901754,9.30769123 L7.27901754,12.3112 L8.55242105,12.3112 C8.80491228,12.3112 9.00912281,12.5159719 9.00912281,12.7674807 C9.00912281,13.0199719 8.80491228,13.2246035 8.55242105,13.2246035 L8.55242105,13.2246035 L8.55242105,13.2246035 Z M20.6686316,10.9064281 C20.6686316,7.01042807 16.7626667,3.84046316 11.9616842,3.84046316 C7.1605614,3.84046316 3.25389474,7.01042807 3.25389474,10.9064281 C3.25389474,14.3989193 6.35185965,17.3252351 10.536,17.8786386 C10.8196491,17.9392702 11.2053333,18.066007 11.3031579,18.3078316 C11.3910175,18.5274807 11.3607018,18.8724632 11.3310877,19.0947789 C11.3310877,19.0947789 11.229614,19.7090947 11.2074386,19.8410246 C11.1689825,20.060814 11.032,20.7012351 11.9616842,20.3097965 C12.8906667,19.9180772 16.9757193,17.3569544 18.8021053,15.2540772 L18.8018246,15.2540772 C20.0641404,13.8706386 20.6686316,12.466007 20.6686316,10.9064281 L20.6686316,10.9064281 L20.6686316,10.9064281 Z" id="Fill-4" fill="#F3F3F3"></path>
                </g>
            </g>
        </g>
    </g>
</svg>

<svg width="24" height="24" xmlns="http://www.w3.org/2000/svg"><g fill="none" fill-rule="evenodd"><path d="M19.59.021L4.358 0A4.332 4.332 0 0 0 .021 4.325L0 19.557a4.333 4.333 0 0 0 4.325 4.338l15.23.021a4.332 4.332 0 0 0 4.338-4.326l.022-15.231A4.33 4.33 0 0 0 19.589.02" fill="#BFBFBF"/><path d="M17.307 10.581a.457.457 0 0 1 0 .913h-1.274v.817h1.274a.457.457 0 0 1 0 .914h-1.731a.457.457 0 0 1-.456-.458v-3.46c0-.25.205-.456.456-.456h1.731a.457.457 0 0 1 0 .914h-1.274v.816h1.274zm-2.8 2.186a.455.455 0 0 1-.822.275l-1.773-2.414v2.14a.457.457 0 1 1-.913 0v-3.46a.457.457 0 0 1 .821-.274l1.774 2.415V9.308a.458.458 0 0 1 .913 0v3.46zm-4.165 0a.457.457 0 1 1-.913 0v-3.46a.457.457 0 0 1 .913 0v3.46zm-1.79.458h-1.73a.457.457 0 0 1-.456-.458v-3.46a.457.457 0 0 1 .913 0v3.004h1.273a.457.457 0 1 1 0 .914zm12.117-2.319c0-3.896-3.906-7.066-8.707-7.066s-8.708 3.17-8.708 7.066c0 3.493 3.098 6.42 7.282 6.973.284.06.67.187.767.429.088.22.058.564.028.787 0 0-.101.614-.124.746-.038.22-.175.86.755.469.929-.392 5.014-2.953 6.84-5.056 1.262-1.383 1.867-2.788 1.867-4.348z" fill="#F3F3F3"/></g></svg>
